svg/globe1.svg

<?xml version="1.0" encoding="UTF-8"?>
<svg xmlns="http://www.w3.org/2000/svg" xmlns:xlink="http://www.w3.org/1999/xlink" width="32" height="32" viewBox="0 0 32 32">
<path fill-rule="nonzero" fill="rgb(0%, 0%, 0%)" fill-opacity="1" d="M 16.050781 1.28125 C 7.929688 1.28125 1.332031 7.878906 1.332031 16 C 1.332031 24.121094 7.929688 30.71875 16.050781 30.71875 C 24.171875 30.71875 30.769531 24.121094 30.769531 16 C 30.769531 7.878906 24.171875 1.28125 16.050781 1.28125 M 16.050781 2.558594 C 23.480469 2.558594 29.492188 8.570312 29.492188 16 C 29.492188 23.429688 23.480469 29.441406 16.050781 29.441406 C 8.621094 29.441406 2.609375 23.429688 2.609375 16 C 2.609375 8.570312 8.621094 2.558594 16.050781 2.558594 M 15.410156 3.925781 C 13.753906 4.332031 12.285156 6.296875 11.351562 9.089844 C 12.636719 9.355469 14.007812 9.507812 15.410156 9.546875 Z M 16.691406 3.925781 L 16.691406 9.546875 C 18.058594 9.515625 19.417969 9.367188 20.757812 9.101562 C 19.820312 6.304688 18.351562 4.332031 16.691406 3.925781 M 12.480469 4.378906 C 10.457031 5.003906 8.628906 6.152344 7.183594 7.707031 C 8.054688 8.140625 9.03125 8.503906 10.085938 8.789062 C 10.683594 6.96875 11.503906 5.457031 12.480469 4.378906 M 19.625 4.378906 C 20.601562 5.457031 21.421875 6.976562 22.019531 8.800781 C 23.023438 8.539062 23.992188 8.167969 24.917969 7.703125 C 23.472656 6.152344 21.648438 5.007812 19.625 4.378906 M 25.753906 8.703125 C 24.765625 9.242188 23.625 9.683594 22.375 10.027344 C 22.785156 11.640625 23.03125 13.441406 23.074219 15.359375 L 28.179688 15.359375 C 28.054688 12.949219 27.210938 10.628906 25.753906 8.703125 M 6.339844 8.710938 C 4.890625 10.636719 4.046875 12.953125 3.921875 15.359375 L 9.027344 15.359375 C 9.074219 13.4375 9.320312 11.632812 9.730469 10.015625 C 8.554688 9.703125 7.417969 9.265625 6.339844 8.710938 M 10.984375 10.320312 C 10.589844 11.84375 10.355469 13.558594 10.308594 15.359375 L 15.410156 15.359375 L 15.410156 10.824219 C 13.921875 10.789062 12.441406 10.617188 10.984375 10.320312 M 21.121094 10.324219 C 19.726562 10.617188 18.234375 10.785156 16.691406 10.820312 L 16.691406 15.355469 L 21.796875 15.355469 C 21.75 13.5625 21.511719 11.851562 21.121094 10.328125 M 3.921875 16.640625 C 4.046875 19.050781 4.890625 21.371094 6.347656 23.296875 C 7.335938 22.757812 8.476562 22.316406 9.730469 21.972656 C 9.320312 20.359375 9.074219 18.558594 9.027344 16.640625 Z M 10.308594 16.640625 C 10.355469 18.4375 10.589844 20.148438 10.984375 21.671875 C 12.441406 21.371094 13.921875 21.207031 15.410156 21.175781 L 15.410156 16.640625 Z M 16.691406 16.640625 L 16.691406 21.175781 C 18.21875 21.214844 19.710938 21.386719 21.117188 21.679688 C 21.511719 20.15625 21.75 18.441406 21.796875 16.640625 Z M 23.074219 16.640625 C 23.03125 18.5625 22.785156 20.367188 22.371094 21.984375 C 23.613281 22.320312 24.753906 22.761719 25.761719 23.289062 C 27.210938 21.363281 28.054688 19.046875 28.179688 16.640625 Z M 15.410156 22.453125 C 14.046875 22.484375 12.6875 22.632812 11.347656 22.898438 C 12.28125 25.695312 13.75 27.667969 15.410156 28.074219 Z M 16.691406 22.453125 L 16.691406 28.074219 C 18.351562 27.667969 19.816406 25.703125 20.753906 22.910156 C 19.414062 22.636719 18.054688 22.484375 16.691406 22.453125 M 10.082031 23.199219 C 9.019531 23.488281 8.039062 23.855469 7.183594 24.296875 C 8.628906 25.847656 10.457031 26.992188 12.480469 27.621094 C 11.5 26.542969 10.679688 25.023438 10.082031 23.199219 M 22.015625 23.210938 C 21.417969 25.03125 20.597656 26.542969 19.621094 27.621094 C 21.648438 26.992188 23.476562 25.84375 24.921875 24.292969 C 23.992188 23.835938 23.015625 23.472656 22.015625 23.210938 M 22.015625 23.210938 "/>
</svg>

<svg role="img" viewBox="0 0 32 32" height="32" width="32" xmlns="http://www.w3.org/2000/svg"><path d="M16.05 1.281C7.93 1.281 1.333 7.88 1.333 16c0 8.121 6.598 14.719 14.719 14.719 8.12 0 14.719-6.598 14.719-14.719 0-8.121-6.598-14.719-14.72-14.719m0 1.278c7.43 0 13.442 6.011 13.442 13.441 0 7.43-6.012 13.441-13.441 13.441C8.62 29.441 2.609 23.43 2.609 16c0-7.43 6.012-13.441 13.442-13.441m-.64 1.367c-1.656.406-3.125 2.37-4.058 5.164 1.285.265 2.656.418 4.058.457Zm1.281 0v5.62a23.977 23.977 0 0 0 4.067-.444c-.938-2.797-2.406-4.77-4.067-5.176m-4.21.453a12.101 12.101 0 0 0-5.297 3.328c.87.434 1.847.797 2.902 1.082.598-1.82 1.418-3.332 2.394-4.41m7.144 0c.977 1.078 1.797 2.598 2.395 4.422a14.767 14.767 0 0 0 2.898-1.098 12.16 12.16 0 0 0-5.293-3.324m6.129 4.324c-.988.54-2.129.98-3.379 1.324.41 1.614.656 3.414.7 5.332h5.105a12.085 12.085 0 0 0-2.426-6.656M6.34 8.711a12.093 12.093 0 0 0-2.418 6.648h5.105c.047-1.921.293-3.726.703-5.343A16.864 16.864 0 0 1 6.34 8.71m4.644 1.61c-.394 1.523-.629 3.238-.675 5.038h5.101v-4.535a24.91 24.91 0 0 1-4.426-.504m10.137.007c-1.394.29-2.887.461-4.43.496v4.535h5.106c-.047-1.796-.285-3.507-.676-5.03m-17.2 6.313a12.085 12.085 0 0 0 2.427 6.656c.988-.54 2.129-.98 3.382-1.324-.41-1.614-.656-3.414-.703-5.332Zm6.388 0c.046 1.797.28 3.507.675 5.03a24.59 24.59 0 0 1 4.426-.495V16.64Zm6.382 0v4.535c1.528.039 3.02.21 4.426.504.395-1.524.633-3.239.68-5.04Zm6.383 0c-.043 1.922-.289 3.726-.703 5.343 1.242.336 2.383.778 3.39 1.305a12.093 12.093 0 0 0 2.419-6.648Zm-7.664 5.812a23.95 23.95 0 0 0-4.062.445c.933 2.797 2.402 4.77 4.062 5.176Zm1.281 0v5.621c1.66-.406 3.125-2.37 4.063-5.164a23.422 23.422 0 0 0-4.063-.457m-6.609.746c-1.062.29-2.043.656-2.898 1.098a12.174 12.174 0 0 0 5.296 3.324c-.98-1.078-1.8-2.598-2.398-4.422m11.934.012c-.598 1.82-1.418 3.332-2.395 4.41a12.136 12.136 0 0 0 5.3-3.328 15.803 15.803 0 0 0-2.905-1.082m0 0"/></svg>
